X:2
T: Tóth Józsi
L: 1/4
Q: "Parlando" 1/4=80
O: Felsőtárkány (Heves), Özv. Farkas Benedekné Bugyi Mária (76). 1953.05
K:D
A/A/B/A/ F/D/G/F/ | E<D D z | 
dedc | d/c/B/G/ | B<A A z | 
d<e dc | | d/c/B/G/ | B<A Ez | 
A/A/B/A/ F/D/G/F/ | E<D D z | 

